X: 35314
T: Rose, The
R: reel
M: 4/4
K: Fmajor
Ac~cc dcAd|cdcA AGFD|CzzF FGAf|dcAF GAFG|
Ac~cc dcAd|cdcA AGFD|(3CCCC DFGAf|dcAG AFF2|
Ac~cc dcAd|cdcA AGFD|CzzF FGAf|dcAF GAFG|
Ac~cc dcAd|cdcA AGFD|zzFD FGAf|dcAG AFF2|
ABBA BAF2|zBBA Bcec|zBBA BAFA|Bceg fcBA|
zBBA BAF2|zBBA Bcef|gfec efec|BcBA fBFB,|
ABBA BAF2|zBBA Bcec|zBBA BAFA|Bceg fcba|
zBBA BAF2|zBBA Bcef|gfec efec|BcBA fBFB,||

